dist/img/logo.svg

<svg width="42" height="32" viewBox="0 0 42 32" fill="none" xmlns="http://www.w3.org/2000/svg">
<g clip-path="url(#clip0_104_358)">
<path d="M35.5521 2.69928C32.836 1.45846 29.9432 0.544177 26.8959 0.0217285C26.5205 0.67479 26.0789 1.56731 25.7918 2.28567C22.5679 1.80676 19.366 1.80676 16.2083 2.28567C15.8991 1.56731 15.4575 0.67479 15.0821 0.0217285C12.0348 0.544177 9.14201 1.45846 6.42592 2.69928C0.949578 10.8408 -0.529918 18.7864 0.198789 26.6014C3.84232 29.2789 7.35336 30.8898 10.8202 31.9565C11.6814 30.8027 12.4322 29.5619 13.0947 28.2776C11.836 27.8204 10.6436 27.2327 9.5174 26.5578C9.82655 26.3402 10.1136 26.1007 10.4007 25.883C17.3123 29.0613 24.7981 29.0613 31.6215 25.883C31.9085 26.1225 32.1956 26.3402 32.5048 26.5578C31.3786 27.2327 30.1641 27.7987 28.9275 28.2776C29.5899 29.5619 30.3407 30.8027 31.2019 31.9565C34.6688 30.8898 38.2019 29.2789 41.8234 26.6014C42.6846 17.5238 40.3439 9.66527 35.5962 2.69928H35.5521ZM14.0221 21.8123C11.9464 21.8123 10.2461 19.9184 10.2461 17.5891C10.2461 15.2599 11.9023 13.366 14.0221 13.366C16.142 13.366 17.8202 15.2599 17.7981 17.5891C17.7981 19.8966 16.142 21.8123 14.0221 21.8123ZM27.9559 21.8123C25.8802 21.8123 24.1798 19.9184 24.1798 17.5891C24.1798 15.2599 25.836 13.366 27.9559 13.366C30.0757 13.366 31.754 15.2599 31.7319 17.5891C31.7319 19.8966 30.0757 21.8123 27.9559 21.8123Z" fill="white"/>
</g>
<defs>
<clipPath id="clip0_104_358">
<rect width="42" height="32" fill="white"/>
</clipPath>
</defs>
</svg>

<svg width="42" height="32" fill="none" xmlns="http://www.w3.org/2000/svg"><g clip-path="url(#a)"><path d="M35.552 2.7A35.043 35.043 0 0 0 26.896.021a19.603 19.603 0 0 0-1.104 2.264 32.141 32.141 0 0 0-9.584 0A23.859 23.859 0 0 0 15.082.021a35.043 35.043 0 0 0-8.656 2.677C.95 10.841-.53 18.786.199 26.601c3.643 2.678 7.154 4.289 10.621 5.355a26.286 26.286 0 0 0 2.275-3.678 20.754 20.754 0 0 1-3.578-1.72c.31-.218.597-.457.884-.675 6.911 3.178 14.397 3.178 21.22 0 .288.24.575.457.884.675-1.126.675-2.34 1.24-3.578 1.72a26.276 26.276 0 0 0 2.275 3.678c3.467-1.066 7-2.677 10.621-5.355.862-9.077-1.48-16.936-6.227-23.902h-.044Zm-21.53 19.112c-2.076 0-3.776-1.894-3.776-4.223 0-2.33 1.656-4.223 3.776-4.223s3.798 1.894 3.776 4.223c0 2.308-1.656 4.223-3.776 4.223Zm13.934 0c-2.076 0-3.776-1.894-3.776-4.223 0-2.33 1.656-4.223 3.776-4.223s3.798 1.894 3.776 4.223c0 2.308-1.656 4.223-3.776 4.223Z" fill="#fff"/></g><defs><clipPath id="a"><path fill="#fff" d="M0 0h42v32H0z"/></clipPath></defs></svg>
